X: 290
T: Nao huizi
L: 1/8
M: 2/4
K: A
ee2e [I:setbarnb 1]| 
e B e c | 
B4 | 
e2f e | 
c B A F | 
A EA2 | 
B cB2 | 
cc2B | 
A> F c c | 
B2A F | 
E4 |]

@@@ Tune index: 9164
